X:1
T:Lord Randal
M:3/4
L:1/4
K:C
 D| A/2A/2 B A/2A/2| G D E/2G/2| G D E| D2 G| A/2A/2 A B/2d/2| d/2 d3/2e/2-d/2|\
 B G B/2B/2| A2 A| B B A| B d e/2d/2| B G G| B2 D| G/2 B3/2 G| A2 B/2A/2|\
 G D E| D2||
